X:18969
T:Xiraldilla (CT 083)
R:Xiraldilla
C:Tradicional
S:Música Tradicional Asturiana, (C) Tello & Tito. Asturies, 2001.
S:http://pagina.de/MusTradAst <telloytito@asturies.org>
N:Xiraldilla, transcrita en La Vega, ayuntamiento de Riosa.
O:La Vega (Riosa)
A:Asturies
Z:Cancioneru de Torner 083
M:3/8
L:1/8
Q:3/8=88
W:¿Cómo quieres, prisionero,
W:que te alargue la cadena?
W:Si te aprietan los candados,
W:quedas con la misma pena.
W:
W:A tu puerta llaman,
W:dorado clavel;
W:es un estudiante
W:que te viene a ver.
W:
W:Estudiante no le quiero,
W:labrador me lo han de dar,
W:que coja los bueyes y se vaya arar
W:y a la media noche me venga a rondar.
K:C
B|d2 d|edc|d2 B-|B2 d|c2 c|ABc|d d2-|dzB|d2 d|edc|d2 B-|B2 d|c2 c|ABc|dd||


